X: 1
T: C\uasu\,ta Noastr\ua
S: RGic\ua Petrescu recording
S: Transcription by Yaron \,Shragai 2018
R: reel
Z: 2018 John Chambers <jc:trillian.mit.edu>
M: C|
L: 1/8
K: Am
"A"[|\
"Am"ABcd efg^f | gag^f gagf | "G"ga3 gfed | "C"e4- "E"e2z2 |
"Am"ABcd "A7"efgf | "Dm"edgf edcB | "F"cd3 "E"edcB | "Am"A4 zAce |]
"B"[|\
"Am"a4 e4 | "Dm"dfed "Am"cB "F#dim"A2 | "G7"ga3 gfed | "C"e2- "E"e2 "Am"zAce |
"Am"a4 e4 | "Dm"dfed "Am"cB A2 | "Dm"cd3 "E"edcB | "Am"A4- A2z2 |]
